/* XPM */
static char *amoeba[] = {
/* columns rows colors chars-per-pixel */
"100 100 67 1 ",
"  c black",
". c #040301",
"X c #050401",
"o c #080702",
"O c #090803",
"+ c #0F0D04",
"@ c #100E05",
"# c #161206",
"$ c #221D0A",
"% c #241F0A",
"& c #27220B",
"* c #29230C",
"= c #2B250C",
"- c #2C260D",
"; c #302A0E",
": c #4B4116",
"> c #4E4316",
", c #4F4417",
"< c #514517",
"1 c #584C19",
"2 c #5C4F1A",
"3 c #5D501B",
"4 c #61531C",
"5 c #62541C",
"6 c #806E25",
"7 c #837025",
"8 c #9E882D",
"9 c #A18A2E",
"0 c #A78F30",
"q c #A89030",
"w c #AF9632",
"e c #B19833",
"r c #B49A33",
"t c #B99F35",
"y c #BBA035",
"u c #BDA236",
"i c #C4A838",
"p c #C6AB3E",
"a c #C7AD43",
"s c #C9AF48",
"d c #CAB04B",
"f c #CAB14C",
"g c #CCB453",
"h c #CDB555",
"j c #CEB75B",
"k c #CFB95E",
"l c #D8C57B",
"z c #D9C67D",
"x c #E2D49D",
"c c #E3D6A1",
"v c #E4D7A4",
"b c #E4D8A5",
"n c #E7DBAD",
"m c #E7DCAF",
"M c #E8DEB3",
"N c #F1EACF",
"B c #F2ECD3",
"V c #F3EDD6",
"C c #F4EFDA",
"Z c #F5F0DD",
"A c #F8F5E8",
"S c #FAF7EE",
"D c #FAF8EF",
"F c #FCFBF6",
"G c #FDFCF7",
"H c #FEFDFA",
"J c white",
/* pixels */
"iiiiiiiiiiiiiiiiiiiiiiiiiiiiiiiiiiiiiiiiiiiiiiii5  5iiiiiiiiiiiiiiiiiiiiiiiiiiiiiiiiiiiiiiiiiiiiiiii",
"iiiiiiiiiiiiiiiiiiiiiiiiiiiiiiiiiiiiiiiiiiiiiiii5  5iiiiiiiiiiiiiiiiiiiiiiiiiiiiiiiiiiiiiiiiiiiiiiii",
"iiiiiiiiiiiiiiiiiiiiiiiiiiiiiiiiiiiiiiiiiiiiiiii5  5iiiiiiiiiiiiiiiiiiiiiiiiiiiiiiiiiiiiiiiiiiiiiiii",
"iiiiiiiiiiiiiiiiiiiiiiiiiiiiiiiiiiiiiiiiiiiiiiii5  5iiiiiiiiiiiiiiiiiiiiiiiiiiiiiiiiiiiiiiiiiiiiiiii",
"iiiiiiiiiiiiiiiiiiiiiiiiiiiiiiiiiiiiiiiiiiiiiiii5  5iiiiiiiiiiiiiiiiiiiiiiiiiiiiiiiiiiiiiiiiiiiiiiii",
"iiiiiiiiiiiiiiiiiiiiiiiiiiiiiiiiiiiiiiiiiiiiiiii5  5iiiiiiiiiiiiiiiiiiiiiiiiiiiiiiiiiiiiiiiiiiiiiiii",
"iiiiiiiiiiiiiiiiiiiiiiiiiiiiiiiiiiiiiiiiiiiiiiii5  5iiiiiiiiiiiiiiiiiiiiiiiiiiiiiiiiiiiiiiiiiiiiiiii",
"iiiiiiiiiiiiiiiiiiiiiiiiiiiiiiiiiiiiiiiiiiiiiiii5  5iiiiiiiiiiiiiiiiiiiiiiiiiiiiiiiiiiiiiiiiiiiiiiii",
"iiiiiiiiiiiiiiiiiiiiiiiiiiiiiiiiiiiiiiiiiiiiiiii5  5iiiiiiiiiiiiiiiiiiiiiiiiiiiiiiiiiiiiiiiiiiiiiiii",
"iiiiiiiiiiiiiiiiiiit6>*@..@*>6tiiiiiiiiiiiiiiiii5  5iiiiiiiiiiiiiiiiiazMVDHHDVMzaiiiiiiiiiiiiiiiiiii",
"iiiiiiiiiiiiiiiii0:o          o>qiiiiiiiiiiiiiii5  5iiiiiiiiiiiiiiihMGJJJJJJJJJJGMhiiiiiiiiiiiiiiiii",
"iiiiiiiiiiiiiiiu1               .1uiiiiiiiiiiiii5  5iiiiiiiiiiiiipbJJJJJJJJJJJJJJJHvpiiiiiiiiiiiiiii",
"iiiiiiiiiiiiiiq$                  =eiiiiiiiiiiii5  5iiiiiiiiiiiihZJJJJJJJJJJJJJJJJJJBfiiiiiiiiiiiiii",
"iiiiiiiiiiiii8@                    #9iiiiiiiiiii5  5iiiiiiiiiiikDJJJJJJJJJJJJJJJJJJJJAkiiiiiiiiiiiii",
"iiiiiiiiiiiiq@                      #eiiiiiiiiii5  5iiiiiiiiiihDJJJJJJJJJJJJJJJJJJJJJJAdiiiiiiiiiiii",
"iiiiiiiiiiiu%                        &uiiiiiiiii5  5iiiiiiiiipCJJJJJJJJJJJJJJJJJJJJJJJJVpiiiiiiiiiii",
"iiiiiiiiiii1                          4iiiiiiiii5  5iiiiiiiiibJJJJJJJJJJJJJJJJJJJJJJJJJJxiiiiiiiiiii",
"iiiiiiiiii0                           Oeiiiiiiii5  5iiiiiiiihJJJJJJJJJJJJJJJJJJJJJJJJJJJFdiiiiiiiiii",
"iiiiiiiiii:                            <iiiiiiii5  5iiiiiiiiMJJJJJJJJJJJJJJJJJJJJJJJJJJJJniiiiiiiiii",
"iiiiiiiiito                            otiiiiiii5  5iiiiiiiaGJJJJJJJJJJJJJJJJJJJJJJJJJJJJFaiiiiiiiii",
"iiiiiiiii6                              6iiiiiii5  5iiiiiiizJJJJJJJJJJJJJJJJJJJJJJJJJJJJJJziiiiiiiii",
"iiiiiiiii>                              >iiiiiii5  5iiiiiiiMJJJJJJJJJJJJJJJJJJJJJJJJJJJJJJmiiiiiiiii",
"iiiiiiiii*                              =iiiiiii5  5iiiiiiiVJJJJJJJJJJJJJJJJJJJJJJJJJJJJJJBiiiiiiiii",
"iiiiiiiii+                              @iiiiiii5  5iiiiiiiDJJJJJJJJJJJJJJJJJJJJJJJJJJJJJJSiiiiiiiii",
"iiiiiiiiiX                              Xiiiiiii5  5iiiiiiiHJJJJJJJJJJJJJJJJJJJJJJJJJJJJJJHiiiiiiiii",
"iiiiiiiiiX                              Xiiiiiii5  5iiiiiiiHJJJJJJJJJJJJJJJJJJJJJJJJJJJJJJHiiiiiiiii",
"iiiiiiiii+                              @iiiiiii5  5iiiiiiiDJJJJJJJJJJJJJJJJJJJJJJJJJJJJJJSiiiiiiiii",
"iiiiiiiii*                              =iiiiiii5  5iiiiiiiVJJJJJJJJJJJJJJJJJJJJJJJJJJJJJJBiiiiiiiii",
"iiiiiiiii>                              ,iiiiiii5  5iiiiiiiMJJJJJJJJJJJJJJJJJJJJJJJJJJJJJJmiiiiiiiii",
"iiiiiiiii6                              7iiiiiii5  5iiiiiiizJJJJJJJJJJJJJJJJJJJJJJJJJJJJJJliiiiiiiii",
"iiiiiiiiiyo                            oyiiiiiii5  5iiiiiiiaFJJJJJJJJJJJJJJJJJJJJJJJJJJJJFaiiiiiiiii",
"iiiiiiiiii>                            >iiiiiiii5  5iiiiiiiiMJJJJJJJJJJJJJJJJJJJJJJJJJJJJMiiiiiiiiii",
"iiiiiiiiiiq.                          Xqiiiiiiii5  5iiiiiiiihHJJJJJJJJJJJJJJJJJJJJJJJJJJHgiiiiiiiiii",
"iiiiiiiiiii1                          2iiiiiiiii5  5iiiiiiiiivJJJJJJJJJJJJJJJJJJJJJJJJJJciiiiiiiiiii",
"iiiiiiiiiiiu=                        -uiiiiiiiii5  5iiiiiiiiipBJJJJJJJJJJJJJJJJJJJJJJJJBpiiiiiiiiiii",
"iiiiiiiiiiiie#                      #wiiiiiiiiii5  5iiiiiiiiiidAJJJJJJJJJJJJJJJJJJJJJJAfiiiiiiiiiiii",
"iiiiiiiiiiiii9#                    #9iiiiiiiiiii5  5iiiiiiiiiiikAJJJJJJJJJJJJJJJJJJJJAjiiiiiiiiiiiii",
"iiiiiiiiiiiiiir;                  -eiiiiiiiiiiii5  5iiiiiiiiiiiisNJJJJJJJJJJJJJJJJJJBdiiiiiiiiiiiiii",
"iiiiiiiiiiiiiiiu4o              X3uiiiiiiiiiiiii5  5iiiiiiiiiiiiipxFJJJJJJJJJJJJJJHcpiiiiiiiiiiiiiii",
"iiiiiiiiiiiiiiiiie<o          o>qiiiiiiiiiiiiiii5  5iiiiiiiiiiiiiiidnFJJJJJJJJJJFmgiiiiiiiiiiiiiiiii",
"iiiiiiiiiiiiiiiiiiiy6,=@XX@=<6yiiiiiiiiiiiiiiiii5  5iiiiiiiiiiiiiiiiiazmVSHHSVmlaiiiiiiiiiiiiiiiiiii",
"iiiiiiiiiiiiiiiiiiiiiiiiiiiiiiiiiiiiiiiiiiiiiiii5  5iiiiiiiiiiiiiiiiiiiiiiiiiiiiiiiiiiiiiiiiiiiiiiii",
"iiiiiiiiiiiiiiiiiiiiiiiiiiiiiiiiiiiiiiiiiiiiiiii5  5iiiiiiiiiiiiiiiiiiiiiiiiiiiiiiiiiiiiiiiiiiiiiiii",
"iiiiiiiiiiiiiiiiiiiiiiiiiiiiiiiiiiiiiiiiiiiiiiii5  5iiiiiiiiiiiiiiiiiiiiiiiiiiiiiiiiiiiiiiiiiiiiiiii",
"iiiiiiiiiiiiiiiiiiiiiiiiiiiiiiiiiiiiiiiiiiiiiiii5  5iiiiiiiiiiiiiiiiiiiiiiiiiiiiiiiiiiiiiiiiiiiiiiii",
"iiiiiiiiiiiiiiiiiiiiiiiiiiiiiiiiiiiiiiiiiiiiiiii5  5iiiiiiiiiiiiiiiiiiiiiiiiiiiiiiiiiiiiiiiiiiiiiiii",
"iiiiiiiiiiiiiiiiiiiiiiiiiiiiiiiiiiiiiiiiiiiiiiii5  5iiiiiiiiiiiiiiiiiiiiiiiiiiiiiiiiiiiiiiiiiiiiiiii",
"iiiiiiiiiiiiiiiiiiiiiiiiiiiiiiiiiiiiiiiiiiiiiiii5  5iiiiiiiiiiiiiiiiiiiiiiiiiiiiiiiiiiiiiiiiiiiiiiii",
"555555555555555555555555555555555555555555555555;  ;555555555555555555555555555555555555555555555555",
"                                                                                                    ",
"                                                                                                    ",
"555555555555555555555555555555555555555555555555;  ;555555555555555555555555555555555555555555555555",
"iiiiiiiiiiiiiiiiiiiiiiiiiiiiiiiiiiiiiiiiiiiiiiii5  5iiiiiiiiiiiiiiiiiiiiiiiiiiiiiiiiiiiiiiiiiiiiiiii",
"iiiiiiiiiiiiiiiiiiiiiiiiiiiiiiiiiiiiiiiiiiiiiiii5  5iiiiiiiiiiiiiiiiiiiiiiiiiiiiiiiiiiiiiiiiiiiiiiii",
"iiiiiiiiiiiiiiiiiiiiiiiiiiiiiiiiiiiiiiiiiiiiiiii5  5iiiiiiiiiiiiiiiiiiiiiiiiiiiiiiiiiiiiiiiiiiiiiiii",
"iiiiiiiiiiiiiiiiiiiiiiiiiiiiiiiiiiiiiiiiiiiiiiii5  5iiiiiiiiiiiiiiiiiiiiiiiiiiiiiiiiiiiiiiiiiiiiiiii",
"iiiiiiiiiiiiiiiiiiiiiiiiiiiiiiiiiiiiiiiiiiiiiiii5  5iiiiiiiiiiiiiiiiiiiiiiiiiiiiiiiiiiiiiiiiiiiiiiii",
"iiiiiiiiiiiiiiiiiiiiiiiiiiiiiiiiiiiiiiiiiiiiiiii5  5iiiiiiiiiiiiiiiiiiiiiiiiiiiiiiiiiiiiiiiiiiiiiiii",
"iiiiiiiiiiiiiiiiiiiiiiiiiiiiiiiiiiiiiiiiiiiiiiii5  5iiiiiiiiiiiiiiiiiiiiiiiiiiiiiiiiiiiiiiiiiiiiiiii",
"iiiiiiiiiiiiiiiiiiiazMVDHHDVMzaiiiiiiiiiiiiiiiii5  5iiiiiiiiiiiiiiiiit6>*@..@*>6tiiiiiiiiiiiiiiiiiii",
"iiiiiiiiiiiiiiiiihMGJJJJJJJJJJGMhiiiiiiiiiiiiiii5  5iiiiiiiiiiiiiii0:o          o>qiiiiiiiiiiiiiiiii",
"iiiiiiiiiiiiiiipbJJJJJJJJJJJJJJJHvpiiiiiiiiiiiii5  5iiiiiiiiiiiiiu1               .1uiiiiiiiiiiiiiii",
"iiiiiiiiiiiiiihZJJJJJJJJJJJJJJJJJJBfiiiiiiiiiiii5  5iiiiiiiiiiiiq$                  =eiiiiiiiiiiiiii",
"iiiiiiiiiiiiikDJJJJJJJJJJJJJJJJJJJJAkiiiiiiiiiii5  5iiiiiiiiiii8@                    #9iiiiiiiiiiiii",
"iiiiiiiiiiiihDJJJJJJJJJJJJJJJJJJJJJJAdiiiiiiiiii5  5iiiiiiiiiiq@                      #eiiiiiiiiiiii",
"iiiiiiiiiiipCJJJJJJJJJJJJJJJJJJJJJJJJVpiiiiiiiii5  5iiiiiiiiiu%                        &uiiiiiiiiiii",
"iiiiiiiiiiibJJJJJJJJJJJJJJJJJJJJJJJJJJxiiiiiiiii5  5iiiiiiiii1                          4iiiiiiiiiii",
"iiiiiiiiiihJJJJJJJJJJJJJJJJJJJJJJJJJJJFdiiiiiiii5  5iiiiiiii0                           Oeiiiiiiiiii",
"iiiiiiiiiiMJJJJJJJJJJJJJJJJJJJJJJJJJJJJniiiiiiii5  5iiiiiiii:                            <iiiiiiiiii",
"iiiiiiiiiaGJJJJJJJJJJJJJJJJJJJJJJJJJJJJFaiiiiiii5  5iiiiiiito                            otiiiiiiiii",
"iiiiiiiiizJJJJJJJJJJJJJJJJJJJJJJJJJJJJJJziiiiiii5  5iiiiiii6                              6iiiiiiiii",
"iiiiiiiiiMJJJJJJJJJJJJJJJJJJJJJJJJJJJJJJmiiiiiii5  5iiiiiii>                              >iiiiiiiii",
"iiiiiiiiiVJJJJJJJJJJJJJJJJJJJJJJJJJJJJJJBiiiiiii5  5iiiiiii*                              =iiiiiiiii",
"iiiiiiiiiDJJJJJJJJJJJJJJJJJJJJJJJJJJJJJJSiiiiiii5  5iiiiiii+                              @iiiiiiiii",
"iiiiiiiiiHJJJJJJJJJJJJJJJJJJJJJJJJJJJJJJHiiiiiii5  5iiiiiiiX                              Xiiiiiiiii",
"iiiiiiiiiHJJJJJJJJJJJJJJJJJJJJJJJJJJJJJJHiiiiiii5  5iiiiiiiX                              Xiiiiiiiii",
"iiiiiiiiiDJJJJJJJJJJJJJJJJJJJJJJJJJJJJJJSiiiiiii5  5iiiiiii+                              @iiiiiiiii",
"iiiiiiiiiVJJJJJJJJJJJJJJJJJJJJJJJJJJJJJJBiiiiiii5  5iiiiiii*                              =iiiiiiiii",
"iiiiiiiiiMJJJJJJJJJJJJJJJJJJJJJJJJJJJJJJmiiiiiii5  5iiiiiii>                              ,iiiiiiiii",
"iiiiiiiiizJJJJJJJJJJJJJJJJJJJJJJJJJJJJJJliiiiiii5  5iiiiiii6                              7iiiiiiiii",
"iiiiiiiiiaFJJJJJJJJJJJJJJJJJJJJJJJJJJJJFaiiiiiii5  5iiiiiiiyo                            oyiiiiiiiii",
"iiiiiiiiiiMJJJJJJJJJJJJJJJJJJJJJJJJJJJJMiiiiiiii5  5iiiiiiii>                            >iiiiiiiiii",
"iiiiiiiiiihHJJJJJJJJJJJJJJJJJJJJJJJJJJHgiiiiiiii5  5iiiiiiiiq.                          Xqiiiiiiiiii",
"iiiiiiiiiiivJJJJJJJJJJJJJJJJJJJJJJJJJJciiiiiiiii5  5iiiiiiiii1                          2iiiiiiiiiii",
"iiiiiiiiiiipBJJJJJJJJJJJJJJJJJJJJJJJJBpiiiiiiiii5  5iiiiiiiiiu=                        -uiiiiiiiiiii",
"iiiiiiiiiiiidAJJJJJJJJJJJJJJJJJJJJJJAfiiiiiiiiii5  5iiiiiiiiiie#                      #wiiiiiiiiiiii",
"iiiiiiiiiiiiikAJJJJJJJJJJJJJJJJJJJJAjiiiiiiiiiii5  5iiiiiiiiiii9#                    #9iiiiiiiiiiiii",
"iiiiiiiiiiiiiisNJJJJJJJJJJJJJJJJJJBdiiiiiiiiiiii5  5iiiiiiiiiiiir;                  -eiiiiiiiiiiiiii",
"iiiiiiiiiiiiiiipxFJJJJJJJJJJJJJJHcpiiiiiiiiiiiii5  5iiiiiiiiiiiiiu4o              X3uiiiiiiiiiiiiiii",
"iiiiiiiiiiiiiiiiidnFJJJJJJJJJJFmgiiiiiiiiiiiiiii5  5iiiiiiiiiiiiiiie<o          o>qiiiiiiiiiiiiiiiii",
"iiiiiiiiiiiiiiiiiiiazmVSHHSVmlaiiiiiiiiiiiiiiiii5  5iiiiiiiiiiiiiiiiiy6,=@XX@=<6yiiiiiiiiiiiiiiiiiii",
"iiiiiiiiiiiiiiiiiiiiiiiiiiiiiiiiiiiiiiiiiiiiiiii5  5iiiiiiiiiiiiiiiiiiiiiiiiiiiiiiiiiiiiiiiiiiiiiiii",
"iiiiiiiiiiiiiiiiiiiiiiiiiiiiiiiiiiiiiiiiiiiiiiii5  5iiiiiiiiiiiiiiiiiiiiiiiiiiiiiiiiiiiiiiiiiiiiiiii",
"iiiiiiiiiiiiiiiiiiiiiiiiiiiiiiiiiiiiiiiiiiiiiiii5  5iiiiiiiiiiiiiiiiiiiiiiiiiiiiiiiiiiiiiiiiiiiiiiii",
"iiiiiiiiiiiiiiiiiiiiiiiiiiiiiiiiiiiiiiiiiiiiiiii5  5iiiiiiiiiiiiiiiiiiiiiiiiiiiiiiiiiiiiiiiiiiiiiiii",
"iiiiiiiiiiiiiiiiiiiiiiiiiiiiiiiiiiiiiiiiiiiiiiii5  5iiiiiiiiiiiiiiiiiiiiiiiiiiiiiiiiiiiiiiiiiiiiiiii",
"iiiiiiiiiiiiiiiiiiiiiiiiiiiiiiiiiiiiiiiiiiiiiiii5  5iiiiiiiiiiiiiiiiiiiiiiiiiiiiiiiiiiiiiiiiiiiiiiii",
"iiiiiiiiiiiiiiiiiiiiiiiiiiiiiiiiiiiiiiiiiiiiiiii5  5iiiiiiiiiiiiiiiiiiiiiiiiiiiiiiiiiiiiiiiiiiiiiiii",
"iiiiiiiiiiiiiiiiiiiiiiiiiiiiiiiiiiiiiiiiiiiiiiii5  5iiiiiiiiiiiiiiiiiiiiiiiiiiiiiiiiiiiiiiiiiiiiiiii",
"iiiiiiiiiiiiiiiiiiiiiiiiiiiiiiiiiiiiiiiiiiiiiiii5  5iiiiiiiiiiiiiiiiiiiiiiiiiiiiiiiiiiiiiiiiiiiiiiii"
};
